src/assets/images/armchair.svg

<!DOCTYPE svg PUBLIC "-//W3C//DTD SVG 1.1//EN" "http://www.w3.org/Graphics/SVG/1.1/DTD/svg11.dtd">
<!-- Uploaded to: SVG Repo, www.svgrepo.com, Transformed by: SVG Repo Mixer Tools -->
<svg fill="#000000" width="95px" height="95px" viewBox="0 0 50 50" xmlns="http://www.w3.org/2000/svg" xmlns:xlink="http://www.w3.org/1999/xlink" stroke="#000000" stroke-width="0.35000000000000003">
<g id="SVGRepo_bgCarrier" stroke-width="0"/>
<g id="SVGRepo_tracerCarrier" stroke-linecap="round" stroke-linejoin="round"/>
<g id="SVGRepo_iconCarrier">
<path d="M25 10C22.664063 10 20.597656 10.976563 19 12.4375C18.355469 12.222656 17.703125 12 17 12C14.386719 12 12.078125 13.601563 10.5 15.96875C9.050781 18.140625 8.167969 21.003906 8.03125 24.15625C5.742188 24.734375 4.03125 26.824219 4.03125 29.28125C4.03125 31.496094 5.460938 33.320313 7.40625 34.09375L9.84375 40.4375L9.875 40.53125L9.90625 40.53125C10.148438 41.28125 10.566406 41.875 11.0625 42.34375L9.3125 45.875C8.613281 47.269531 9.167969 48.988281 10.5625 49.6875C10.964844 49.890625 11.414063 50 11.84375 50C12.886719 50 13.910156 49.425781 14.40625 48.4375L16.59375 44L33.40625 44L35.59375 48.4375C36.089844 49.425781 37.113281 50 38.15625 50C38.585938 50 39.035156 49.890625 39.4375 49.6875C40.832031 48.988281 41.386719 47.269531 40.6875 45.875L38.9375 42.34375C39.433594 41.875 39.851563 41.28125 40.09375 40.53125L40.125 40.53125L40.15625 40.4375L42.59375 34.09375C44.539063 33.320313 45.96875 31.496094 45.96875 29.28125C45.96875 26.824219 44.257813 24.734375 41.96875 24.15625C41.832031 21.003906 40.949219 18.140625 39.5 15.96875C37.921875 13.601563 35.613281 12 33 12C32.296875 12 31.644531 12.222656 31 12.4375C29.402344 10.976563 27.335938 10 25 10 Z M 25 12C26.996094 12 28.785156 12.820313 30.0625 14.15625L30.53125 14.6875L31.1875 14.40625C31.785156 14.148438 32.378906 14 33 14C34.804688 14 36.496094 15.085938 37.8125 17.0625C38.996094 18.839844 39.8125 21.308594 39.96875 24.0625C38.0625 24.332031 36.492188 25.628906 35.8125 27.375L35.78125 27.375L34.25 30.875C33.863281 30.65625 33.453125 30.429688 32.8125 30.1875C31.191406 29.574219 28.722656 29 25.125 29C21.527344 29 18.988281 29.574219 17.3125 30.1875C16.636719 30.433594 16.1875 30.6875 15.78125 30.90625L14.3125 27.65625L14.28125 27.65625C13.671875 25.769531 12.035156 24.347656 10.03125 24.0625C10.1875 21.308594 11.003906 18.839844 12.1875 17.0625C13.503906 15.085938 15.195313 14 17 14C17.621094 14 18.214844 14.148438 18.8125 14.40625L19.46875 14.6875L19.9375 14.15625C21.214844 12.820313 23.003906 12 25 12 Z M 9.21875 26C9.25 26 9.28125 26 9.3125 26C10.800781 26 12.039063 26.984375 12.4375 28.34375L12.4375 28.40625L12.46875 28.46875L14.40625 32.75L14.875 33.78125L15.84375 33.1875C16.054688 33.058594 15.976563 33.089844 16.0625 33.03125C16.148438 32.972656 16.269531 32.878906 16.4375 32.78125C16.769531 32.585938 17.277344 32.328125 18 32.0625C19.445313 31.535156 21.742188 31 25.125 31C28.507813 31 30.714844 31.542969 32.09375 32.0625C32.78125 32.324219 33.253906 32.558594 33.5625 32.75C33.714844 32.84375 33.828125 32.941406 33.90625 33C33.945313 33.027344 34.003906 33.042969 34.03125 33.0625C34.058594 33.082031 34.023438 33.074219 34.15625 33.15625L35.125 33.75L35.59375 32.71875L37.625 28.1875L37.625 28.15625L37.65625 28.125C38.121094 26.882813 39.277344 26 40.6875 26C40.730469 26 40.769531 26 40.8125 26C42.566406 26.066406 43.96875 27.507813 43.96875 29.28125C43.96875 30.789063 42.945313 32.023438 41.5625 32.40625L41.0625 32.53125L40.90625 33L38.25 39.8125L38.25 39.84375L38.21875 39.875C37.925781 40.894531 37.0625 41.421875 36.09375 41.71875C35.261719 41.976563 34.601563 42 34.40625 42C34.148438 41.886719 33.851563 41.886719 33.59375 42L16.375 42C16.132813 41.902344 15.867188 41.902344 15.625 42C15.460938 42 14.765625 41.984375 13.90625 41.71875C12.9375 41.421875 12.074219 40.894531 11.78125 39.875L11.75 39.84375L11.75 39.78125L9.09375 33L8.9375 32.53125L8.4375 32.40625C7.050781 32.023438 6.03125 30.789063 6.03125 29.28125C6.03125 27.496094 7.445313 26.050781 9.21875 26 Z M 12.78125 43.40625C12.957031 43.476563 13.144531 43.574219 13.3125 43.625C13.714844 43.75 14.089844 43.820313 14.4375 43.875L12.59375 47.53125C12.441406 47.839844 12.15625 48 11.84375 48C11.71875 48 11.59375 47.96875 11.46875 47.90625C11.039063 47.691406 10.878906 47.210938 11.09375 46.78125 Z M 37.21875 43.40625L38.90625 46.78125C39.121094 47.210938 38.960938 47.691406 38.53125 47.90625C38.40625 47.96875 38.28125 48 38.15625 48C37.84375 48 37.558594 47.839844 37.40625 47.53125L35.5625 43.875C35.910156 43.820313 36.285156 43.75 36.6875 43.625C36.855469 43.574219 37.042969 43.476563 37.21875 43.40625Z"/>
</g>
</svg>

<svg width="95" height="95" viewBox="0 0 50 50" xmlns="http://www.w3.org/2000/svg" stroke="#000" stroke-width=".35"><path d="M25 10c-2.336 0-4.402.977-6 2.438-.645-.215-1.297-.438-2-.438-2.613 0-4.922 1.602-6.5 3.969-1.45 2.172-2.332 5.035-2.469 8.187-2.289.578-4 2.668-4 5.125 0 2.215 1.43 4.04 3.375 4.813l2.438 6.343.031.094h.031a4.28 4.28 0 0 0 1.156 1.813l-1.75 3.531c-.699 1.395-.144 3.113 1.25 3.813.403.203.852.312 1.282.312 1.043 0 2.066-.574 2.562-1.563L16.594 44h16.812l2.188 4.438c.496.988 1.52 1.562 2.562 1.562.43 0 .88-.11 1.282-.313 1.394-.699 1.949-2.417 1.25-3.812l-1.75-3.531a4.28 4.28 0 0 0 1.156-1.813h.031l.031-.093 2.438-6.344c1.945-.774 3.375-2.598 3.375-4.813 0-2.457-1.711-4.547-4-5.125-.137-3.152-1.02-6.015-2.469-8.187C37.922 13.602 35.613 12 33 12c-.703 0-1.355.223-2 .438C29.402 10.976 27.336 10 25 10zm0 2c1.996 0 3.785.82 5.063 2.156l.468.531.657-.28C31.785 14.147 32.377 14 33 14c1.805 0 3.496 1.086 4.813 3.063 1.183 1.777 2 4.246 2.156 7a5.266 5.266 0 0 0-4.157 3.312h-.03l-1.532 3.5a9.47 9.47 0 0 0-1.438-.688c-1.62-.613-4.09-1.187-7.687-1.187-3.598 0-6.137.574-7.813 1.188-.675.246-1.125.5-1.53.718l-1.47-3.25h-.03a5.261 5.261 0 0 0-4.25-3.593c.155-2.754.972-5.223 2.155-7C13.505 15.085 15.195 14 17 14c.621 0 1.215.148 1.813.406l.656.281.468-.53A6.962 6.962 0 0 1 25 12zM9.219 26h.094c1.488 0 2.726.984 3.124 2.344v.062l.032.063 1.937 4.281.469 1.031.969-.593c.21-.13.133-.098.219-.157.085-.058.207-.152.375-.25.332-.195.84-.453 1.562-.718C19.445 31.535 21.742 31 25.125 31s5.59.543 6.969 1.063c.687.261 1.16.496 1.468.687.153.094.266.191.344.25.04.027.098.043.125.063.028.019-.008.011.125.093l.969.594.469-1.031 2.031-4.532v-.03l.031-.032C38.121 26.883 39.277 26 40.688 26h.124a3.282 3.282 0 0 1 3.157 3.281c0 1.508-1.024 2.742-2.407 3.125l-.5.125-.156.469-2.656 6.813v.03l-.031.032c-.293 1.02-1.157 1.547-2.125 1.844a5.99 5.99 0 0 1-1.688.281 1.014 1.014 0 0 0-.812 0H16.375a.997.997 0 0 0-.75 0c-.164 0-.86-.016-1.719-.281-.969-.297-1.832-.824-2.125-1.844l-.031-.031v-.063L9.094 33l-.156-.469-.5-.125C7.05 32.023 6.03 30.79 6.03 29.281A3.277 3.277 0 0 1 9.22 26zm3.562 17.406c.176.07.364.168.531.219.403.125.778.195 1.126.25l-1.844 3.656a.817.817 0 0 1-.75.469.832.832 0 0 1-.375-.094.817.817 0 0 1-.375-1.125zm24.438 0 1.687 3.375c.215.43.055.91-.375 1.125a.832.832 0 0 1-.375.094.817.817 0 0 1-.75-.469l-1.843-3.656a7.793 7.793 0 0 0 1.124-.25c.168-.05.356-.148.532-.219z"/></svg>
